X: 29881
T: O'Keeffe's
R: slide
M: 12/8
K: Adorian
|:G|"Am"A2e e2d "G"BAB d2B|"Am"A2e e2d "G"B2G GAB|
"Am"A2e e2d "G"BAB d2e|"Em"BAB "G"d2e B2A A2:|
|:d|"Am"e2a a2b "Em"a2g e2d|"Am"efg a2b "Em"a2g e2f|
"G"g2a gfe "D"dBA G2G|"Em"BAB d2e "Am"B2A A2:|

